X:1
T:Polska från Nora
R:Polska
O:Nora, Västmanland
M:3/4
L:1/8
K:G
|: D2 B2 B2 | D2 A2 A2 | B>c cB BA | Ad dd d2 |
D2 B2 B2 | D2 A2 A2 | B>c cB BA | AG/F/ G4 :|
|: B>G GB Bd | d^c cd d2 | B>G GB AG | GF FE ED |
B>G GB Bd | d^c cd d2 | B>G GB AG | FE/F/ G4 :|

